src/icon/banking/marketplace/icon_marketplace_m_white.svg

<svg width="24px" height="24px" viewBox="0 0 24 24" version="1.1" xmlns="http://www.w3.org/2000/svg"><g stroke="none" stroke-width="1" fill="none" fill-rule="evenodd"><rect x="0" y="0" width="24" height="24"/><rect x="0" y="0" width="24" height="24"/><path d="M19.4,7 L17,7 L17,4.5 C17,2 15,0 12.5,0 L11.5,0 C9,0 7,2 7,4.5 L7,7 L4.6,7 L2.4,24 L21.5,24 L19.4,7 L19.4,7 Z M8,4.5 C8,2.6 9.6,1 11.5,1 L12.5,1 C14.4,1 16,2.6 16,4.5 L16,7 L8,7 L8,4.5 L8,4.5 Z M5.4,8 L18.5,8 L20.4,23 L3.6,23 L5.4,8 L5.4,8 Z" fill="#FFFFFF"/><path d="M16.1664632,19.389 L13.5614632,12.327 C13.3154632,11.663 13.0214632,11 12.0864632,11 C11.1524632,11 10.8474632,11.673 10.6114632,12.327 C10.4894632,12.664 8.09846316,19.142 8.00846316,19.389 C7.9825698,19.4602059 8.01802332,19.5390899 8.08846316,19.567 L9.50446316,20.111 C9.57846316,20.14 9.65346316,20.095 9.67746316,20.03 C9.70146316,19.964 10.2714632,18.359 10.3314632,18.199 L13.8454632,18.199 C13.9044632,18.36 14.4694632,19.962 14.4944632,20.03 C14.5211177,20.0995159 14.5981093,20.1353569 14.6684632,20.111 L16.0854632,19.567 C16.1734632,19.534 16.1864632,19.443 16.1664632,19.389 Z M10.9054632,16.6 L12.0804632,13.15 L12.0954632,13.15 L13.2744632,16.6 L10.9054632,16.6 Z" fill="#FFFFFF" fill-rule="nonzero" opacity="0.3"/></g></svg>

<svg width="24" height="24" viewBox="0 0 24 24" xmlns="http://www.w3.org/2000/svg"><g fill="none" fill-rule="evenodd"><path d="M0 0h24v24H0z"/><path d="M0 0h24v24H0z"/><path d="M19.4 7H17V4.5C17 2 15 0 12.5 0h-1C9 0 7 2 7 4.5V7H4.6L2.4 24h19.1L19.4 7zM8 4.5C8 2.6 9.6 1 11.5 1h1C14.4 1 16 2.6 16 4.5V7H8V4.5zM5.4 8h13.1l1.9 15H3.6L5.4 8z" fill="#FFF"/><path d="M16.166 19.389l-2.605-7.062c-.246-.664-.54-1.327-1.475-1.327-.934 0-1.239.673-1.475 1.327-.122.337-2.513 6.815-2.603 7.062a.14.14 0 0 0 .08.178l1.416.544c.074.029.15-.016.173-.081.024-.066.594-1.671.654-1.831h3.514c.06.161.624 1.763.65 1.831.026.07.103.105.173.081l1.417-.544c.088-.033.101-.124.081-.178zm-5.26-2.789l1.174-3.45h.015l1.18 3.45h-2.37z" fill="#FFF" fill-rule="nonzero" opacity=".3"/></g></svg>
